X: 234
T: Bert Jamieson's Set Tune No.4
B: australian dance tunes
M:6/8
L:1/8
Q: 3/8=100
K:G
V:1 
d|:B2 B BAB|c2 c cBc|d2 d dcB|A3 d3|!
B2 B BAB|c2 c cBc|d2 d cBA|G3-G2 d:|!
|:gfe dBG|c2 d e2 d|gfe dBG|A3-A2 d|!
gfe dBG|c2 d ege|d2 d cBA|G3-G2 B:|!
|:G2 B BdB|G2 B B2 d|e2 d dBG|A3 ABA|!
F2 A ABA|F2 A ABA|d2 d cBA|1B3 B2 B:|2G3 G2 B||!
|:d2 d B2 d|e2 f g3|b2 a gfe|d3 ded|e2 e efe|!
d2 d ded|1A2 A A2 B|A3 A2 d:|2A2 A cBA|G6||
% abcbook-tune_id 62a07850273b055ee9f2d460


% abcbook-boost 0
% abcbook-tablature 
% abcbook-transpose 
% abcbook-lastupdated 1654683750447
% abcbook-soundfonts 
% abcbook-repeats 1


